NotoEmoji/emoji_u1f539.svg

<svg enable-background="new 0 0 128 128" viewBox="0 0 128 128" xmlns="http://www.w3.org/2000/svg"><path d="m65.9 43.5 18.5 18.4c1.1 1.1 1 2.9-.1 3.9l-18.4 18.6c-1.1 1.1-2.9 1.1-4 0l-18.4-18.5c-1.1-1.1-1.1-2.8-.1-3.9l18.5-18.4c1.1-1.2 2.9-1.2 4-.1z" fill="#1976d2"/><path d="m62.9 46.1 16.1 16.1c.9 1 .9 2.5-.1 3.4l-16 16.2c-1 1-2.5 1-3.5 0l-16.1-16.1c-1-.9-1-2.5-.1-3.4l16.2-16.1c1-1 2.5-1 3.5-.1z" fill="#2196f3"/><g fill="#90caf9"><path d="m60 47.5c-.5.4-11.7 11.5-11.7 11.5s-.9.8-.3 1.7c.6.8 1.5.4 2 0s10.5-10.3 10.9-10.8.5-1.4.2-1.9c-.2-.7-.7-.7-1.1-.5z"/><circle cx="46.8" cy="62.7" r="1.2"/></g></svg>

<?xml version="1.0" encoding="utf-8"?>
<!-- Generator: Adobe Illustrator 25.2.3, SVG Export Plug-In . SVG Version: 6.00 Build 0)  -->
<svg version="1.1" id="Layer_1" xmlns="http://www.w3.org/2000/svg" xmlns:xlink="http://www.w3.org/1999/xlink" x="0px" y="0px"
	 viewBox="0 0 128 128" style="enable-background:new 0 0 128 128;" xml:space="preserve">
<g>
	<path style="fill:#1976D2;" d="M65.9,43.5l18.5,18.4c1.1,1.1,1,2.9-0.1,3.9L65.9,84.4c-1.1,1.1-2.9,1.1-4,0L43.5,65.9
		c-1.1-1.1-1.1-2.8-0.1-3.9l18.5-18.4C63,42.4,64.8,42.4,65.9,43.5z"/>
	<path style="fill:#2196F3;" d="M62.9,46.1L79,62.2c0.9,1,0.9,2.5-0.1,3.4l-16,16.2c-1,1-2.5,1-3.5,0L43.3,65.7
		c-1-0.9-1-2.5-0.1-3.4l16.2-16.1C60.4,45.2,61.9,45.2,62.9,46.1z"/>
	<path style="fill:#90CAF9;" d="M60,47.5C59.5,47.9,48.3,59,48.3,59s-0.9,0.8-0.3,1.7c0.6,0.8,1.5,0.4,2,0s10.5-10.3,10.9-10.8
		s0.5-1.4,0.2-1.9C60.9,47.3,60.4,47.3,60,47.5z"/>
	<circle style="fill:#90CAF9;" cx="46.8" cy="62.7" r="1.2"/>
</g>
</svg>
